!!!COM: Anthoni van Noordt
!!!OTL: Fantasia
!!!OMV: 
!!!SCT: 
!!!SCA: 
**kern	**kern	**kern	**kern
*MM120	*MM120	*MM120	*MM120
*G:mix	*G:mix	*G:mix	*G:mix
*clefF4	*clefF4	*clefG2	*clefG2
*k[]	*k[]	*k[]	*k[]
*M2/2	*M2/2	*M2/2	*M2/2
*tb32	*tb32	*tb32	*tb32
=1	=1	=1	=1
1r	1r	2r	1r
.	.	2d	.
=2	=2	=2	=2
1r	1r	4g	1r
.	.	4g	.
.	.	4a	.
.	.	4e	.
=3	=3	=3	=3
1r	1r	4f	1r
.	.	4f#	.
.	.	8g	.
.	.	8f	.
.	.	8e	.
.	.	8d	.
=4	=4	=4	=4
1r	1r	2c	2r
.	.	4r	2g
.	.	4e	.
=5	=5	=5	=5
1r	1r	4B	4dd
.	.	4g	4dd
.	.	4c	4ee
.	.	4d	4b
=6	=6	=6	=6
1r	1r	4e	4cc
.	.	4A	4cc#
.	.	4B	8dd
.	.	.	8cc
.	.	8g	8b
.	.	8f	8a
=7	=7	=7	=7
1r	2r	4e	2g
.	.	8d	.
.	.	8c	.
.	2G	4d	4r
.	.	4e	4b
=8	=8	=8	=8
1r	4d	2f#	4a
.	4d	.	4dd
.	4e	4.g	4cc
.	4B	.	4dd
.	.	8f	.
=9	=9	=9	=9
1r	4c	2e	4g
.	4c#	.	4a
.	8d	2d	4f#
.	8c	.	.
.	8B	.	8dd
.	8A	.	8cc
=10	=10	=10	=10
2r	2G	1r	8.bO
.	.	.	32a
.	.	.	32b
.	.	.	32cc
.	.	.	32b
.	.	.	32cc
.	.	.	32b
.	.	.	32cc
.	.	.	32b
.	.	.	32a
.	.	.	32g
2D	4r	.	8a
.	.	.	8g
.	4d	.	8f#
.	.	.	8a
=11	=11	=11	=11
4G	4B	1r	8g
.	.	.	16gg
.	.	.	16ff
4G	4g	.	16ee
.	.	.	16ff
.	.	.	16dd
.	.	.	16ee
4A	4e	.	8cc
.	.	.	8dd
4E	4g	.	4ee
=12	=12	=12	=12
4F	8f	1r	4a
.	8e	.	.
4F#	8d	.	4dd
.	8c	.	.
8G	2B	.	8g
8F	.	.	8b
8E	.	.	8cc
8D	.	.	8dd
=13	=13	=13	=13
2C	2c	8r	2ee
.	.	8a	.
.	.	8e	.
.	.	8f	.
4r	8r	[2g	8r
.	8c	.	8ee
4E	8G	.	8b
.	8A	.	8cc
=14	=14	=14	=14
4BB	4B	8g]	2dd
.	.	8a	.
4G	4B	8g	.
.	.	8f	.
4C	[2c	8e	2cc
.	.	16f	.
.	.	16g	.
4D	.	8f	.
.	.	16g	.
.	.	16a	.
=15	=15	=15	=15
4E	4c]	16g	2r
.	.	16e	.
.	.	16a	.
.	.	16g	.
4F	8d	16f	.
.	.	16g	.
.	8c	16e	.
.	.	16f	.
2G	8B	2d	4r
.	8A	.	.
.	4B	.	4g
=16	=16	=16	=16
4F#	4A	8r	4dd
.	.	8a	.
4G	4d	8b	4dd
.	.	16a	.
.	.	16b	.
4C	4c	8g	4ee
.	.	8f#	.
8G	4d	[4g	4b
8F	.	.	.
=17	=17	=17	=17
4E	4e	8g]	4cc
.	.	8f	.
8A	4e	4e	4cc#
8G	.	.	.
4F#	4A	2d	8dd
.	.	.	8cc
[4G	[4B	.	8b
.	.	.	8a
=18	=18	=18	=18
8G]	8B]	2r	4.g
8G	8B	.	.
8F#	8A	.	.
8E	8G	.	8g
2D	4A	4r	8f#
.	.	.	8g
.	4F#	4d	4a
=19	=19	=19	=19
1r	8G	4g	8b
.	8A	.	8cc
.	4B	4g	4dd
.	4c	4a	8cc
.	.	.	8dd
.	4c#	4e	4ee
=20	=20	=20	=20
2r	8d	4f	4a
.	8c	.	.
.	8B	4f#	8dd
.	8A	.	8cc
4r	2G	8g	4b
.	.	8f	.
4C	.	8e	8cc
.	.	8d	8b
=21	=21	=21	=21
8F	1r	4.c	4a
8G	.	.	.
4A	.	.	4a
.	.	8d	.
8E	.	4e	8g
8F	.	.	8a
4G	.	8d	8b
.	.	8e	8cc
=22	=22	=22	=22
8D	2r	4f	4dd
8E	.	.	.
8F	.	4f	8a
8G	.	.	8b
8A	4r	4e	4.cc
16G	.	.	.
16F	.	.	.
4E	4G	4g	.
.	.	.	8b
=23	=23	=23	=23
4F	4d	8f	8a
.	.	8e	8g
4D	4d	4f#	8a
.	.	.	8b
4C	4e	2g	4cc
4G	4B	.	4dd
=24	=24	=24	=24
4A	4c	2r	8cc
.	.	.	8b
4A	4c#	.	8a
.	.	.	8g
2D	8d	4r	4f#
.	8c	.	.
.	8B	[4d	8g
.	8A	.	8a
=25	=25	=25	=25
2r	2G	8d]	4b
.	.	8c	.
.	.	8d	8a
.	.	8e	8g
4r	4d	4f	8a
.	.	.	8b
4C	4e	4g	4cc
=26	=26	=26	=26
4G	4d	4.g	8b
.	.	.	8cc
4G	4B	.	4dd
.	.	8f	.
4A	4.c	8e	8cc
.	.	8f	8dd
4E	.	4g	[4ee
.	8B	.	.
=27	=27	=27	=27
4F	8A	4a	8ee]
.	8G	.	8ee
4F#	4A	4a	8dd
.	.	.	8cc
8G	4d	4.g	4b
8F	.	.	.
8E	4G	.	[4cc
8D	.	8f	.
=28	=28	=28	=28
2C	2c	4e	8cc]
.	.	.	8dd
.	.	4e	8cc
.	.	.	8b
2F	4.d	8f	4a
.	.	8g	.
.	.	8f	4a
.	8c	8e	.
=29	=29	=29	=29
4.G	8B	8d	2g
.	8A	8c	.
.	8B	8d	.
16F	8c	8e	.
16E	.	.	.
8D	4d	8f	2r
8C#	.	8e	.
8D	4d	8f	.
8E	.	8g	.
=30	=30	=30	=30
8F	8c	4a	1r
8G	8B	.	.
8A	8c	4.a	.
8B	8d	.	.
4c	[4e	.	.
.	.	8g	.
4C	16e]	[4g	.
.	16d	.	.
.	16c	.	.
.	16B	.	.
=31	=31	=31	=31
2D	8A	4g]	1r
.	16B	.	.
.	16c	.	.
.	8d	4.f	.
.	8c	.	.
2G	4B	.	.
.	.	16g	.
.	.	16f	.
.	[4c	8e	.
.	.	16f	.
.	.	16e	.
=32	=32	=32	=32
2G	8c]	4.d	2r
.	16B	.	.
.	16A	.	.
.	8B	.	.
.	8c	8e	.
2D	4d	8f#	4r
.	.	4g	.
.	4A	.	4a
.	.	8f#	.
=33	=33	=33	=33
1r	8B	4.g	4dd
.	16A	.	.
.	16B	.	.
.	8G	.	4dd
.	16A	8f	.
.	16B	.	.
.	8c	[2e	4ee
.	16B	.	.
.	16A	.	.
.	8G#	.	4b
.	16F#	.	.
.	16G#	.	.
=34	=34	=34	=34
1r	8A	4e]	4cc
.	16G	.	.
.	16F	.	.
.	8.EO	4g	4cc#
.	32D	.	.
.	32E	.	.
.	4D	4f	8dd
.	.	.	8cc
.	[4E	8g	8b
.	.	8f	8a
=35	=35	=35	=35
1r	8E]	8e	4.g
.	8F	8d	.
.	4G	8B	.
.	.	8c	8a
.	4r	4.d	8b
.	.	.	8cc
.	4G	.	[4dd
.	.	8e	.
=36	=36	=36	=36
1r	4d	4f	8dd]
.	.	.	16cc
.	.	.	16dd
.	4d	4f#	8b
.	.	.	16cc
.	.	.	16dd
.	4e	8g	4cc
.	.	16f	.
.	.	16g	.
.	4B	8d	4dd
.	.	16e	.
.	.	16f	.
=37	=37	=37	=37
1r	4c	8e	8g
.	.	8d	16f
.	.	.	16g
.	4c#	4e	8a
.	.	.	16g
.	.	.	16a
.	8d	4d	4f#
.	8c	.	.
.	8B	4d	8g
.	8A	.	8a
=38	=38	=38	=38
2r	8G	4g	4b
.	16F	.	.
.	16G	.	.
.	8E	4g	4cc#
.	16D	.	.
.	16E	.	.
4r	8F#	4a	4dd
.	16E	.	.
.	16F#	.	.
4E	8G#	4e	4ee
.	16F#	.	.
.	16G#	.	.
=39	=39	=39	=39
8D	4A	4f	4a
16C	.	.	.
16D	.	.	.
8BB	4r	4f#	4dd
16C	.	.	.
16D	.	.	.
8E	2r	8g	4b
16D	.	8f	.
16E	.	.	.
8C	.	8e	8cc
16D	.	8d	8b
16E	.	.	.
=40	=40	=40	=40
8F	2r	4c	2a
16E	.	.	.
16F	.	.	.
8D	.	8f	.
16E	.	8e	.
16F	.	.	.
8G	4r	4d	2b
16F	.	.	.
16G	.	.	.
8E	4e	4g	.
16F	.	.	.
16G	.	.	.
=41	=41	=41	=41
4A	8c	4e	2r
.	16B	.	.
.	16c	.	.
4F	8A	4a	.
.	16B	.	.
.	16c	.	.
4G	8B	4d	4r
.	16A	.	.
.	16B	.	.
4C	8c	4e	[4cc
.	16B	.	.
.	16c	.	.
=42	=42	=42	=42
4D	4A	4f#	8cc]
.	.	.	16b
.	.	.	16cc
4r	4B	4g	8b
.	.	.	16cc
.	.	.	16dd
4r	4c	8e	4.a
.	.	16f#	.
.	.	16g	.
4D	[4d	4f#	.
.	.	.	16b
.	.	.	16cc
=43	=43	=43	=43
4G	8d]	2g	4b
.	16c	.	.
.	16d	.	.
4G	8B	.	4.ee
.	16c	.	.
.	16d	.	.
4A	4c	4e	.
.	.	.	16dd
.	.	.	16ee
4E	4e	4g	8cc
.	.	.	16b
.	.	.	16cc
=44	=44	=44	=44
4F	4A	4a	8dd
.	.	.	16cc
.	.	.	16dd
4F#	4A	4d	8a
.	.	.	16b
.	.	.	16cc
8G	4G	4d	8b
8F	.	.	16a
.	.	.	16b
8E	[4G	[4e	8g
8D	.	.	16a
.	.	.	16b
=45	=45	=45	=45
[2C	8G]	4.e]	2cc
.	16A	.	.
.	16B	.	.
.	[2c	.	.
.	.	16f	.
.	.	16g	.
8C]	.	2a	4r
16D	.	.	.
16E	.	.	.
4F	8c]	.	[4cc
.	16d	.	.
.	16e	.	.
=46	=46	=46	=46
4.F	2f	2a	8cc]
.	.	.	16b
.	.	.	16cc
.	.	.	4.dd
16E	.	.	.
16F	.	.	.
4G	2e	4b-	.
.	.	.	16ee
.	.	.	16dd
4A	.	8a	4cc#
.	.	8g	.
=47	=47	=47	=47
1D	1d	2f#	1dd
.	.	4r	.
.	.	4a	.
=48	=48	=48	=48
1r	4r	4dd	1r
.	4d	4dd	.
.	4g	4ee	.
.	4g	4b	.
=49	=49	=49	=49
1r	4a	4cc	1r
.	4e	4cc#	.
.	4f	8dd	.
.	.	8cc	.
.	4f#	8b	.
.	.	8a	.
=50	=50	=50	=50
1r	8g	4g	1r
.	8f	.	.
.	8e	8cc	.
.	8d	8dd	.
.	4c	8ee	.
.	.	4a	.
.	8f	.	.
.	8g	8b	.
=51	=51	=51	=51
1r	8a	4cc	1r
.	4e	.	.
.	.	4.b	.
.	8f#	.	.
.	[4g	.	.
.	.	8cc	.
.	16g]	[4dd	.
.	16g	.	.
.	16f	.	.
.	16e	.	.
=52	=52	=52	=52
1r	8d	16dd]	1r
.	.	16dd	.
.	8e	16cc	.
.	.	16b	.
.	[4f	8a	.
.	.	8b	.
.	16f]	[4cc	.
.	16f	.	.
.	16e	.	.
.	16d	.	.
.	[4c	16cc]	.
.	.	16cc	.
.	.	16b	.
.	.	16a	.
=53	=53	=53	=53
2r	16c]	[4g	1r
.	16e	.	.
.	16c	.	.
.	16d	.	.
.	4.e	16g]	.
.	.	16cc	.
.	.	16g	.
.	.	16a	.
4r	.	4.b	.
.	8f#	.	.
4G	8g	.	.
.	8e	8cc	.
=54	=54	=54	=54
4d	8f#	8a	4r
.	8g	8b	.
4d	4f#	4a	4dd
4e	4.g	2g	4gg
4B	.	.	4gg
.	8f	.	.
=55	=55	=55	=55
4c	8e	1r	4aa
.	8d	.	.
4c#	4e	.	4ee
8d	2d	.	4ff
8c	.	.	.
8B	.	.	4ff#
8A	.	.	.
=56	=56	=56	=56
4G	1r	1r	8gg
.	.	.	8ff
8c	.	.	8ee
8d	.	.	8dd
8e	.	.	4cc
4A	.	.	.
.	.	.	8ff
8G	.	.	8gg
=57	=57	=57	=57
4F	1r	1r	8aa
.	.	.	4dd
8f	.	.	.
8e	.	.	8ee
8d	.	.	[4ff
8e	.	.	.
[4f	.	.	16ff]
.	.	.	16ff
.	.	.	16ee
.	.	.	16dd
=58	=58	=58	=58
16f]	1r	1r	8cc
16f	.	.	.
16e	.	.	8dd
16d	.	.	.
8c	.	.	8ee
8d	.	.	8ff
8e	.	.	[4gg
8f	.	.	.
[4g	.	.	16gg]
.	.	.	16gg
.	.	.	16ff
.	.	.	16ee
=59	=59	=59	=59
16g]	2r	1r	[4dd
16g	.	.	.
16f	.	.	.
16e	.	.	.
[4d	.	.	16dd]
.	.	.	16dd
.	.	.	16cc
.	.	.	16b
16d]	4r	.	8a
16d	.	.	.
16c	.	.	8b
16B	.	.	.
4A	4c	.	16.cc
.	.	.	32dd
.	.	.	[8ee
=60	=60	=60	=60
4G	4g	1r	16ee]
.	.	.	16ee
.	.	.	16dd
.	.	.	16cc
4G	4g	.	8b
.	.	.	8cc
16F	4a	.	4dd
16f	.	.	.
16e	.	.	.
16d	.	.	.
8c#	4e	.	4ee
8A	.	.	.
=61	=61	=61	=61
8d	4f	4r	2dd
8D	.	.	.
16d	4f#	4a	.
16c	.	.	.
16B	.	.	.
16A	.	.	.
4.B	8g	4dd	2r
.	8f	.	.
.	8e	4dd	.
8B	8d	.	.
=62	=62	=62	=62
4.A	8c	4ee	1r
.	8d	.	.
.	4.e	4b	.
8G#	.	.	.
2A	.	4cc	.
.	8e	.	.
.	8a	4cc#	.
.	8g	.	.
=63	=63	=63	=63
4B	4f#	8dd	4r
.	.	8cc	.
4G	8g	8b	4dd
.	8f	8a	.
2r	8e	8g	4gg
.	8d	8b	.
.	8c	8cc	4gg
.	8B	8dd	.
=64	=64	=64	=64
1r	8c	8ee	4aa
.	8f	8a	.
.	8g	8b	4ee
.	8e	8cc#	.
.	[4d	8dd	4ff
.	.	16cc	.
.	.	16b	.
.	16d]	4a	4ff#
.	16c	.	.
.	16B	.	.
.	16A	.	.
=65	=65	=65	=65
2r	4G	8b	8gg
.	.	8dd	8ff
.	4.c	8cc	8ee
.	.	8b	8dd
4r	.	4a	4cc
.	8c	.	.
4G	8d	4g	8b
.	8e	.	8cc
=66	=66	=66	=66
4d	4f	4r	8a
.	.	.	8dd
4d	4f#	8r	4aa
.	.	8dd	.
4e	4.g	8b	4gg
.	.	8cc	.
4B	.	4dd	4gg
.	8f	.	.
=67	=67	=67	=67
4c	8e	8cc	4aa
.	8d	8b	.
4c#	4e	8a	4ee
.	.	8g	.
8d	4d	4f#	4a
8c	.	.	.
8B	[4d	4f#	8dd
8A	.	.	8cc
=68	=68	=68	=68
4.G	8d]	4g	2.b
.	8c	.	.
.	4.B	4d	.
8F	.	.	.
4.E	.	4g	.
.	16A	.	.
.	16G	.	.
.	[4c	4g	4ee
16D	.	.	.
16C	.	.	.
=69	=69	=69	=69
8F	8c]	4a	4.cc
8G	8B	.	.
8A	4c	4e	.
8G	.	.	8b
8F	4.d	4f	4.a
8E	.	.	.
4D	.	4f#	.
.	8c	.	8a
=70	=70	=70	=70
4r	4B	8g	4dd
.	.	8f	.
4E	8c	8e	4g
.	8B	8d	.
4F	4A	8c	2r
.	.	4f	.
[4D	8d	.	.
.	8c	8e	.
=71	=71	=71	=71
8D]	4B	4.d	2r
4G	.	.	.
.	4A	.	.
8F#	.	4d	.
4G	4B	.	4r
.	.	4g	.
4D	4A	.	4a
.	.	8f#	.
=72	=72	=72	=72
4BB	8G	2g	4dd
.	8A	.	.
4G	8B	.	4dd
.	16A	.	.
.	16B	.	.
4C	8c	4r	4ee
.	16B	.	.
.	16c	.	.
8G	4d	[4g	4b
8F	.	.	.
=73	=73	=73	=73
8E	4e	4g]	4cc
8D	.	.	.
4E	4e	4g	4cc#
2D	4A	4f	8dd
.	.	.	8cc
.	[4d	4f	8b
.	.	.	8a
=74	=74	=74	=74
4.E	8d]	2e	1g
.	8c	.	.
.	4.c	.	.
8F	.	.	.
2G	.	4.d	.
.	16B	.	.
.	16A	.	.
.	4B	.	.
.	.	8e	.
=75	=75	=75	=75
2D	2A	4.f	8r
.	.	.	8a
.	.	.	8dd
.	.	8e	8cc
2r	4r	8d	4b
.	.	8g	.
.	4G	8d	4b
.	.	8e	.
=76	=76	=76	=76
2r	4d	4f	8a
.	.	.	8dd
.	4d	4f	8a
.	.	.	8b
4r	4e	2e	8cc
.	.	.	8gg
4G	4B	.	8dd
.	.	.	8ee
=77	=77	=77	=77
8F	4c	4.a	4ff
8G	.	.	.
4A	4c#	.	4ee
.	.	8g	.
2D	8d	4f	4.dd
.	8c	.	.
.	8B	4f#	.
.	8A	.	8cc
=78	=78	=78	=78
2r	4.G	2g	8b
.	.	.	16cc
.	.	.	16dd
.	.	.	4ee
.	16A	.	.
.	16B	.	.
4r	8c	2r	8a
.	16d	.	16b
.	16e	.	16cc
4D	8f	.	[4dd
.	16g	.	.
.	16f	.	.
=79	=79	=79	=79
4G	4e	1r	8dd]
.	.	.	4cc
4G	4d	.	.
.	.	.	8b
4A	4c	.	8cc
.	.	.	16b
.	.	.	16a
4E	8e	.	8g
.	8d	.	8b-
=80	=80	=80	=80
4F	8c	1r	8a
.	8B	.	16b
.	.	.	16cc
4F#	8A	.	8dd
.	8a	.	8cc
8G	4.g	.	8b
8F	.	.	8a
8E	.	.	[4b
8D	8f	.	.
=81	=81	=81	=81
4C	4.e	1r	8b]
.	.	.	8a
8c	.	.	4.g
8B	8d	.	.
8A	8c	.	.
8G	8B	.	8g
4A	4c	.	8.gO
.	.	.	16f#
=82	=82	=82	=82
4.E	8B	4r	2g
.	8G	.	.
.	4c	4e	.
8C	.	.	.
2G	2B	2d	8r
.	.	.	8g
.	.	.	8dd
.	.	.	8dd
=83	=83	=83	=83
8r	1r	2r	4ee
8C	.	.	.
8G	.	.	4b
8G	.	.	.
4A	.	8r	4cc
.	.	8c	.
4E	.	8g	4ee
.	.	8g	.
=84	=84	=84	=84
4F#	8r	4a	4dd
.	8A	.	.
4G	8d	4g	4b
.	8d	.	.
8r	4e	2g	4cc
8C	.	.	.
8G	4B	.	4dd
8G	.	.	.
=85	=85	=85	=85
4A	2c	8r	2cc
.	.	8e	.
4E	.	8g	.
.	.	8g	.
4F	8r	2a	2r
.	8A	.	.
4F#	8d	.	.
.	8d	.	.
=86	=86	=86	=86
8G	2B	8r	1r
8F	.	8d	.
8E	.	8g	.
8D	.	8g	.
2C	8r	4a	.
.	8A	.	.
.	8c	4e	.
.	8c	.	.
=87	=87	=87	=87
1r	4d	4f	8r
.	.	.	8a
.	4d	4f#	8dd
.	.	.	8dd
.	8.c	4.g	4ee
.	16d	.	.
.	8e	.	4b
.	8d	8f	.
=88	=88	=88	=88
1r	8c	8e	4cc
.	8B	8d	.
.	8A	4e	4cc#
.	8G	.	.
.	4F#	4a	8dd
.	.	.	8cc
.	4G	8g	8b
.	.	8f	8a
=89	=89	=89	=89
2r	8r	4e	4b
.	8G	.	.
.	8d	4f#	4a
.	8d	.	.
8r	4e	2g	2g
8C	.	.	.
8G	4B	.	.
8G	.	.	.
=90	=90	=90	=90
8A	4c	2e	1r
16G	.	.	.
16F	.	.	.
16E	4c#	.	.
16F	.	.	.
16G	.	.	.
16E	.	.	.
8F#	8d	2a	.
4G	8c	.	.
.	8B	.	.
8F#	8A	.	.
=91	=91	=91	=91
2G	2B	2d	8r
.	.	.	8g
.	.	.	8dd
.	.	.	8dd
2r	2r	8r	8ee
.	.	8d	16dd
.	.	.	16cc
.	.	8g	16b
.	.	.	16cc
.	.	8g	16dd
.	.	.	16b
=92	=92	=92	=92
1r	2r	8a	4cc
.	.	16g	.
.	.	16f	.
.	.	16e	4cc#
.	.	16f	.
.	.	16g	.
.	.	16e	.
.	8r	4f	8dd
.	8A	.	16cc
.	.	.	16b
.	8d	4f#	16a
.	.	.	16b
.	8d	.	16cc
.	.	.	16a
=93	=93	=93	=93
2r	8e	1g	4g
.	16d	.	.
.	16c	.	.
.	16B	.	4dd
.	16c	.	.
.	16d	.	.
.	16B	.	.
8r	4c	.	4ee
8C	.	.	.
8G	4B	.	4dd
8G	.	.	.
=94	=94	=94	=94
8A	4e	1r	4.cc
16G	.	.	.
16F	.	.	.
16E	4g	.	.
16F	.	.	.
16G	.	.	8b
16E	.	.	.
4F	8d	.	2a
.	16c	.	.
.	16B	.	.
4F#	16A	.	.
.	16B	.	.
.	16c	.	.
.	16A	.	.
=95	=95	=95	=95
8G	2B	8r	1r
8F	.	8d	.
8E	.	8g	.
8D	.	8g	.
2C	[2c	8a	.
.	.	16g	.
.	.	16f	.
.	.	16e	.
.	.	16f	.
.	.	16g	.
.	.	16e	.
=96	=96	=96	=96
2D	4c]	4f#	8r
.	.	.	8a
.	4B	2g	8dd
.	.	.	8dd
2D	4A	.	8dd
.	.	.	16cc
.	.	.	16b
.	[4d	4f#	16a
.	.	.	16b
.	.	.	16cc
.	.	.	16a
=97	=97	=97	=97
2G	8d]	1g	8b
.	8c	.	8cc
.	4B	.	4dd
2C	8c	.	4ee
.	8d	.	.
.	4e	.	4cc
=98	=98	=98	=98
1G;	1d;	1g;	1b;
==	==	==	==
*-	*-	*-	*-
!!!ENC: Peter van Kranenburg (peter@musical-style-recognition.net)
!!!END: 2020-01-25
